24x24/actions/text-orientation-auto.svg

<svg height="24" width="24" xmlns="http://www.w3.org/2000/svg"><path d="m2 1v11h-2l3 4 3-4h-2v-11zm5 10v1h2v3h-2v1h5c2 0 2-2.5 2-2.5s0-2.5-2-2.5zm3 1h1.5c1.5 0 1.5 1.5 1.5 1.5s0 1.5-1.5 1.5h-1.5zm-1.5-9s-.5 0-.5.5.5.5.5.5h3l-1.5 1.25v.75h-3.5s-.5 0-.5.5.5.5.5.5h3.5v2h-1.5s-.5 0-.5.5.5.5.5.5h1.5s1 0 1-1v-2h3.5s.5 0 .5-.5-.5-.5-.5-.5h-3.5v-.25s2-1.25 2-1.75c0-1-1-1-1-1zm1-3c-.5 0-.5.5-.5.5v.5h-2.5c-.5 0-.5.5-.5.5v1s0 .5.5.5.5-.5.5-.5v-.5h7v.5s0 .5.5.5.5-.5.5-.5v-1s0-.5-.5-.5h-4.5v-.5s0-.5-.5-.5z" fill="#8b9cbe" transform="translate(4 4)"/></svg>

<svg xmlns="http://www.w3.org/2000/svg" width="24" height="24"><defs><style id="current-color-scheme" type="text/css"></style></defs><path style="fill:currentColor;color:#8b9cbe" d="M2 1v11H0l3 4 3-4H4V1zm5 10v1h2v3H7v1h5c2 0 2-2.5 2-2.5s0-2.5-2-2.5zm3 1h1.5c1.5 0 1.5 1.5 1.5 1.5s0 1.5-1.5 1.5H10zM8.5 3S8 3 8 3.5s.5.5.5.5h3L10 5.25V6H6.5S6 6 6 6.5s.5.5.5.5H10v2H8.5S8 9 8 9.5s.5.5.5.5H10s1 0 1-1V7h3.5s.5 0 .5-.5-.5-.5-.5-.5H11v-.25S13 4.5 13 4c0-1-1-1-1-1zm1-3C9 0 9 .5 9 .5V1H6.5c-.5 0-.5.5-.5.5v1s0 .5.5.5.5-.5.5-.5V2h7v.5s0 .5.5.5.5-.5.5-.5v-1s0-.5-.5-.5H10V.5s0-.5-.5-.5z" transform="translate(4 4)"/></svg>
